NetAddr.langPort;

(
OSCdef.new(
	\getTouchOSC,
	{
		arg msg;
		msg.postln;
	},
	'/1/push1'
);
)

"Server Command Reference"

s.nextNodeID;

~eli = NetAddr.new("10.193.64.53", 57120);

~eli.sendMsg('/self', 40);

SendReply;
Amplitude;
Peak;